; generated by Slic3r 1.31.6-prusa3d on 2017-02-28 at 14:58:14

; external perimeters extrusion width = 0.45mm
; perimeters extrusion width = 0.45mm
; infill extrusion width = 0.45mm
; solid infill extrusion width = 0.45mm
; top infill extrusion width = 0.45mm

M107
M115 U3.0.9 ; tell printer latest fw version
M83  ; extruder relative mode
M104 S215 ; set extruder temp
M140 S55 ; set bed temp
M190 S55 ; wait for bed temp
M109 S215 ; wait for extruder temp
G28 W ; home all without mesh bed level
G80 ; mesh bed leveling
G1 Y-3.0 F1000.0 ; go outside pritn area
G1 X60.0 E9.0  F1000.0 ; intro line
G1 X100.0 E12.5  F1000.0 ; intro line
G21 ; set units to millimeters
G90 ; use absolute coordinates
M83 ; use relative distances for extrusion
G1 E-0.80000 F2100.00000
G1 Z0.200 F7200.000
G1 X103.215 Y74.793 F7200.000
G1 E0.80000 F2100.00000
M204 S1000
G1 F2100
G1 X104.260 Y73.917 E0.04278
G1 X105.200 Y73.723 E0.03008
G1 X144.800 Y73.723 E1.24163
G1 X146.107 Y74.115 E0.04278
G1 X146.983 Y75.160 E0.04278
G1 X147.177 Y76.100 E0.03008
G1 X147.177 Y133.900 E1.81228
G1 X146.785 Y135.207 E0.04278
G1 X145.740 Y136.083 E0.04278
G1 X144.800 Y136.277 E0.03008
G1 X105.200 Y136.277 E1.24163
G1 X103.893 Y135.885 E0.04278
G1 X103.017 Y134.840 E0.04278
G1 X102.823 Y133.900 E0.03008
G1 X102.823 Y76.100 E1.81228
G1 X103.197 Y74.850 E0.04090
G1 F5760
G1 X104.260 Y73.917 E-0.49007
G1 F5760
G1 X105.024 Y73.759 E-0.26993
G1 E-0.04000 F2100.00000
G1 X106.164 Y106.964 F7200.000
G1 E0.80000 F2100.00000
G1 F1680
G1 X143.836 Y106.964 E1.18117
G1 X143.836 Y132.936 E0.81432
G1 X106.164 Y132.936 E1.18117
G1 X106.164 Y107.024 E0.81244
G1 X105.787 Y106.587 F7200.000
G1 F1680
G1 X144.213 Y106.587 E1.20482
G1 X144.213 Y133.313 E0.83797
G1 X105.787 Y133.313 E1.20482
G1 X105.787 Y106.647 E0.83609
G1 X105.410 Y106.210 F7200.000
G1 F1050
G1 X144.590 Y106.210 E1.22846
G1 X144.590 Y133.690 E0.86162
G1 X105.410 Y133.690 E1.22846
G1 X105.410 Y106.270 E0.85973
G1 X105.802 Y106.291 F7200.000
G1 F5760
G1 X107.604 Y106.267 E-0.76000
G1 E-0.04000 F2100.00000
G1 X107.044 Y132.823 F7200.000
G1 E0.80000 F2100.00000
G1 F1680
G1 X106.447 Y132.226 E0.02661
G1 X106.447 Y131.690 E0.01690
G1 X107.410 Y132.653 E0.04295
G1 X107.946 Y132.653 E0.01690
G1 X106.447 Y131.154 E0.06685
G1 X106.447 Y130.617 E0.01690
G1 X108.483 Y132.653 E0.09075
G1 X109.019 Y132.653 E0.01690
G1 X106.447 Y130.081 E0.11465
G1 X106.447 Y129.545 E0.01690
G1 X109.555 Y132.653 E0.13856
G1 X110.091 Y132.653 E0.01690
G1 X106.447 Y129.009 E0.16246
G1 X106.447 Y128.473 E0.01690
G1 X110.627 Y132.653 E0.18636
G1 X111.163 Y132.653 E0.01690
G1 X106.447 Y127.937 E0.21026
G1 X106.447 Y127.401 E0.01690
G1 X111.699 Y132.653 E0.23417
G1 X112.236 Y132.653 E0.01690
G1 X106.447 Y126.864 E0.25807
G1 X106.447 Y126.328 E0.01690
G1 X112.772 Y132.653 E0.28197
G1 X113.308 Y132.653 E0.01690
G1 X106.447 Y125.792 E0.30587
G1 X106.447 Y125.256 E0.01690
G1 X113.844 Y132.653 E0.32978
G1 X114.380 Y132.653 E0.01690
G1 X106.447 Y124.720 E0.35368
G1 X106.447 Y124.184 E0.01690
G1 X114.916 Y132.653 E0.37758
G1 X115.453 Y132.653 E0.01690
G1 X106.447 Y123.647 E0.40148
G1 X106.447 Y123.111 E0.01690
G1 X115.989 Y132.653 E0.42539
G1 X116.525 Y132.653 E0.01690
G1 X106.447 Y122.575 E0.44929
G1 X106.447 Y122.039 E0.01690
G1 X117.061 Y132.653 E0.47319
G1 X117.597 Y132.653 E0.01690
G1 X106.447 Y121.503 E0.49709
G1 X106.447 Y120.967 E0.01690
G1 X118.133 Y132.653 E0.52100
G1 X118.670 Y132.653 E0.01690
G1 X106.447 Y120.430 E0.54490
G1 X106.447 Y119.894 E0.01690
G1 X119.206 Y132.653 E0.56880
G1 X119.742 Y132.653 E0.01690
G1 X106.447 Y119.358 E0.59270
G1 X106.447 Y118.822 E0.01690
G1 X120.278 Y132.653 E0.61661
G1 X120.814 Y132.653 E0.01690
G1 X106.447 Y118.286 E0.64051
G1 X106.447 Y117.750 E0.01690
G1 X121.350 Y132.653 E0.66441
G1 X121.886 Y132.653 E0.01690
G1 X106.447 Y117.214 E0.68832
G1 X106.447 Y116.677 E0.01690
G1 X122.423 Y132.653 E0.71222
G1 X122.959 Y132.653 E0.01690
G1 X106.447 Y116.141 E0.73612
G1 X106.447 Y115.605 E0.01690
G1 X123.495 Y132.653 E0.76002
G1 X124.031 Y132.653 E0.01690
G1 X106.447 Y115.069 E0.78393
G1 X106.447 Y114.533 E0.01690
G1 X124.567 Y132.653 E0.80783
G1 X125.103 Y132.653 E0.01690
G1 X106.447 Y113.997 E0.83173
G1 X106.447 Y113.460 E0.01690
G1 X125.640 Y132.653 E0.85563
G1 X126.176 Y132.653 E0.01690
G1 X106.447 Y112.924 E0.87954
G1 X106.447 Y112.388 E0.01690
G1 X126.712 Y132.653 E0.90344
G1 X127.248 Y132.653 E0.01690
G1 X106.447 Y111.852 E0.92734
G1 X106.447 Y111.316 E0.01690
G1 X127.784 Y132.653 E0.95124
G1 X128.320 Y132.653 E0.01690
G1 X106.447 Y110.780 E0.97515
G1 X106.447 Y110.244 E0.01690
G1 X128.856 Y132.653 E0.99905
G1 X129.393 Y132.653 E0.01690
G1 X106.447 Y109.707 E1.02295
G1 X106.447 Y109.171 E0.01690
G1 X129.929 Y132.653 E1.04685
G1 X130.465 Y132.653 E0.01690
G1 X106.447 Y108.635 E1.07076
G1 X106.447 Y108.099 E0.01690
G1 X131.001 Y132.653 E1.09466
G1 X131.537 Y132.653 E0.01690
G1 X106.447 Y107.563 E1.11856
G1 X106.447 Y107.247 E0.00996
G1 X106.667 Y107.247 E0.00695
G1 X132.073 Y132.653 E1.13264
G1 X132.610 Y132.653 E0.01690
G1 X107.203 Y107.247 E1.13264
G1 X107.740 Y107.247 E0.01690
G1 X133.146 Y132.653 E1.13264
G1 X133.682 Y132.653 E0.01690
G1 X108.276 Y107.247 E1.13264
G1 X108.812 Y107.247 E0.01690
G1 X134.218 Y132.653 E1.13264
G1 X134.754 Y132.653 E0.01690
G1 X109.348 Y107.247 E1.13264
G1 X109.884 Y107.247 E0.01690
G1 X135.290 Y132.653 E1.13264
G1 X135.826 Y132.653 E0.01690
G1 X110.420 Y107.247 E1.13264
G1 X110.957 Y107.247 E0.01690
G1 X136.363 Y132.653 E1.13264
G1 X136.899 Y132.653 E0.01690
G1 X111.493 Y107.247 E1.13264
G1 X112.029 Y107.247 E0.01690
G1 X137.435 Y132.653 E1.13264
G1 X137.971 Y132.653 E0.01690
G1 X112.565 Y107.247 E1.13264
G1 X113.101 Y107.247 E0.01690
G1 X138.507 Y132.653 E1.13264
G1 X139.043 Y132.653 E0.01690
G1 X113.637 Y107.247 E1.13264
G1 X114.173 Y107.247 E0.01690
G1 X139.580 Y132.653 E1.13264
G1 X140.116 Y132.653 E0.01690
G1 X114.710 Y107.247 E1.13264
G1 X115.246 Y107.247 E0.01690
G1 X140.652 Y132.653 E1.13264
G1 X141.188 Y132.653 E0.01690
G1 X115.782 Y107.247 E1.13264
G1 X116.318 Y107.247 E0.01690
G1 X141.724 Y132.653 E1.13264
G1 X142.260 Y132.653 E0.01690
G1 X116.854 Y107.247 E1.13264
G1 X117.390 Y107.247 E0.01690
G1 X142.796 Y132.653 E1.13264
G1 X143.333 Y132.653 E0.01690
G1 X117.927 Y107.247 E1.13264
G1 X118.463 Y107.247 E0.01690
G1 X143.553 Y132.337 E1.11857
G1 X143.553 Y131.801 E0.01690
G1 X118.999 Y107.247 E1.09466
G1 X119.535 Y107.247 E0.01690
G1 X143.553 Y131.265 E1.07076
G1 X143.553 Y130.729 E0.01690
G1 X120.071 Y107.247 E1.04686
G1 X120.607 Y107.247 E0.01690
G1 X143.553 Y130.193 E1.02296
G1 X143.553 Y129.657 E0.01690
G1 X121.143 Y107.247 E0.99905
G1 X121.680 Y107.247 E0.01690
G1 X143.553 Y129.120 E0.97515
G1 X143.553 Y128.584 E0.01690
G1 X122.216 Y107.247 E0.95125
G1 X122.752 Y107.247 E0.01690
G1 X143.553 Y128.048 E0.92735
G1 X143.553 Y127.512 E0.01690
G1 X123.288 Y107.247 E0.90344
G1 X123.824 Y107.247 E0.01690
G1 X143.553 Y126.976 E0.87954
G1 X143.553 Y126.440 E0.01690
G1 X124.360 Y107.247 E0.85564
G1 X124.897 Y107.247 E0.01690
G1 X143.553 Y125.903 E0.83173
G1 X143.553 Y125.367 E0.01690
G1 X125.433 Y107.247 E0.80783
G1 X125.969 Y107.247 E0.01690
G1 X143.553 Y124.831 E0.78393
G1 X143.553 Y124.295 E0.01690
G1 X126.505 Y107.247 E0.76003
G1 X127.041 Y107.247 E0.01690
G1 X143.553 Y123.759 E0.73612
G1 X143.553 Y123.223 E0.01690
G1 X127.577 Y107.247 E0.71222
G1 X128.113 Y107.247 E0.01690
G1 X143.553 Y122.687 E0.68832
G1 X143.553 Y122.150 E0.01690
G1 X128.650 Y107.247 E0.66442
G1 X129.186 Y107.247 E0.01690
G1 X143.553 Y121.614 E0.64051
G1 X143.553 Y121.078 E0.01690
G1 X129.722 Y107.247 E0.61661
G1 X130.258 Y107.247 E0.01690
G1 X143.553 Y120.542 E0.59271
G1 X143.553 Y120.006 E0.01690
G1 X130.794 Y107.247 E0.56881
G1 X131.330 Y107.247 E0.01690
G1 X143.553 Y119.470 E0.54490
G1 X143.553 Y118.933 E0.01690
G1 X131.867 Y107.247 E0.52100
G1 X132.403 Y107.247 E0.01690
G1 X143.553 Y118.397 E0.49710
G1 X143.553 Y117.861 E0.01690
G1 X132.939 Y107.247 E0.47320
G1 X133.475 Y107.247 E0.01690
G1 X143.553 Y117.325 E0.44929
G1 X143.553 Y116.789 E0.01690
G1 X134.011 Y107.247 E0.42539
G1 X134.547 Y107.247 E0.01690
G1 X143.553 Y116.253 E0.40149
G1 X143.553 Y115.716 E0.01690
G1 X135.084 Y107.247 E0.37759
G1 X135.620 Y107.247 E0.01690
G1 X143.553 Y115.180 E0.35368
G1 X143.553 Y114.644 E0.01690
G1 X136.156 Y107.247 E0.32978
G1 X136.692 Y107.247 E0.01690
G1 X143.553 Y114.108 E0.30588
G1 X143.553 Y113.572 E0.01690
G1 X137.228 Y107.247 E0.28197
G1 X137.764 Y107.247 E0.01690
G1 X143.553 Y113.036 E0.25807
G1 X143.553 Y112.500 E0.01690
G1 X138.300 Y107.247 E0.23417
G1 X138.837 Y107.247 E0.01690
G1 X143.553 Y111.963 E0.21027
G1 X143.553 Y111.427 E0.01690
G1 X139.373 Y107.247 E0.18636
G1 X139.909 Y107.247 E0.01690
G1 X143.553 Y110.891 E0.16246
G1 X143.553 Y110.355 E0.01690
G1 X140.445 Y107.247 E0.13856
G1 X140.981 Y107.247 E0.01690
G1 X143.553 Y109.819 E0.11466
G1 X143.553 Y109.283 E0.01690
G1 X141.517 Y107.247 E0.09075
G1 X142.054 Y107.247 E0.01690
G1 X143.553 Y108.746 E0.06685
G1 X143.553 Y108.210 E0.01690
G1 X142.590 Y107.247 E0.04295
G1 X143.126 Y107.247 E0.01690
G1 X143.723 Y107.844 E0.02661
G1 F5760
G1 X143.126 Y107.247 E-0.29238
G1 F5760
G1 X142.590 Y107.247 E-0.18570
G1 F5760
G1 X143.165 Y107.823 E-0.28192
G1 E-0.04000 F2100.00000
G1 X109.636 Y80.536 F7200.000
G1 E0.80000 F2100.00000
G1 F1680
G1 X135.064 Y80.536 E0.79729
G1 X135.064 Y95.564 E0.47120
G1 X109.636 Y95.564 E0.79729
G1 X109.636 Y80.596 E0.46932
G1 X110.013 Y80.913 F7200.000
G1 F1680
G1 X134.687 Y80.913 E0.77364
G1 X134.687 Y95.187 E0.44756
G1 X110.013 Y95.187 E0.77364
G1 X110.013 Y80.973 E0.44567
G1 X110.390 Y81.290 F7200.000
G1 F1050
G1 X134.310 Y81.290 E0.74999
G1 X134.310 Y94.810 E0.42391
G1 X110.390 Y94.810 E0.74999
G1 X110.390 Y81.350 E0.42203
G1 X110.252 Y80.915 F7200.000
G1 F5760
G1 X112.584 Y81.344 E-0.76000
G1 E-0.04000 F2100.00000
G1 X106.164 Y77.064 F7200.000
G1 E0.80000 F2100.00000
G1 F1680
G1 X143.836 Y77.064 E1.18117
G1 X143.836 Y103.036 E0.81432
G1 X106.164 Y103.036 E1.18117
G1 X106.164 Y77.124 E0.81244
G1 X105.787 Y76.687 F7200.000
G1 F1680
G1 X144.213 Y76.687 E1.20482
G1 X144.213 Y103.413 E0.83797
G1 X105.787 Y103.413 E1.20482
G1 X105.787 Y76.747 E0.83609
G1 X105.410 Y76.310 F7200.000
G1 F1050
G1 X144.590 Y76.310 E1.22846
G1 X144.590 Y103.790 E0.86162
G1 X105.410 Y103.790 E1.22846
G1 X105.410 Y76.370 E0.85973
G1 X105.802 Y76.391 F7200.000
G1 F5760
G1 X107.604 Y76.367 E-0.76000
G1 E-0.04000 F2100.00000
G1 X107.044 Y102.923 F7200.000
G1 E0.80000 F2100.00000
G1 F1680
G1 X106.447 Y102.326 E0.02661
G1 X106.447 Y101.790 E0.01690
G1 X107.410 Y102.753 E0.04295
G1 X107.946 Y102.753 E0.01690
G1 X106.447 Y101.254 E0.06685
G1 X106.447 Y100.717 E0.01690
G1 X108.483 Y102.753 E0.09075
G1 X109.019 Y102.753 E0.01690
G1 X106.447 Y100.181 E0.11465
G1 X106.447 Y99.645 E0.01690
G1 X109.555 Y102.753 E0.13856
G1 X110.091 Y102.753 E0.01690
G1 X106.447 Y99.109 E0.16246
G1 X106.447 Y98.573 E0.01690
G1 X110.627 Y102.753 E0.18636
G1 X111.163 Y102.753 E0.01690
G1 X106.447 Y98.037 E0.21026
G1 X106.447 Y97.501 E0.01690
G1 X111.699 Y102.753 E0.23417
G1 X112.236 Y102.753 E0.01690
G1 X106.447 Y96.964 E0.25807
G1 X106.447 Y96.428 E0.01690
G1 X112.772 Y102.753 E0.28197
G1 X113.308 Y102.753 E0.01690
G1 X106.447 Y95.892 E0.30587
G1 X106.447 Y95.356 E0.01690
G1 X113.844 Y102.753 E0.32978
G1 X114.380 Y102.753 E0.01690
G1 X106.447 Y94.820 E0.35368
G1 X106.447 Y94.284 E0.01690
G1 X114.916 Y102.753 E0.37758
G1 X115.453 Y102.753 E0.01690
G1 X106.447 Y93.747 E0.40148
G1 X106.447 Y93.211 E0.01690
G1 X116.158 Y102.923 E0.43295
G1 F5760
G1 X114.607 Y101.371 E-0.76000
G1 E-0.04000 F2100.00000
G1 X143.723 Y89.203 F7200.000
G1 E0.80000 F2100.00000
G1 F1680
G1 X135.347 Y80.827 E0.37341
G1 X135.347 Y81.363 E0.01690
G1 X143.553 Y89.570 E0.36584
G1 X143.553 Y90.106 E0.01690
G1 X135.347 Y81.900 E0.36584
G1 X135.347 Y82.436 E0.01690
G1 X143.553 Y90.642 E0.36584
G1 X143.553 Y91.178 E0.01690
G1 X135.347 Y82.972 E0.36584
G1 X135.347 Y83.508 E0.01690
G1 X143.553 Y91.714 E0.36584
G1 X143.553 Y92.250 E0.01690
G1 X135.347 Y84.044 E0.36584
G1 X135.347 Y84.580 E0.01690
G1 X143.553 Y92.787 E0.36584
G1 X143.553 Y93.323 E0.01690
G1 X135.347 Y85.117 E0.36584
G1 X135.347 Y85.653 E0.01690
G1 X143.553 Y93.859 E0.36584
G1 X143.553 Y94.395 E0.01690
G1 X135.347 Y86.189 E0.36584
G1 X135.347 Y86.725 E0.01690
G1 X143.553 Y94.931 E0.36584
G1 X143.553 Y95.467 E0.01690
G1 X135.347 Y87.261 E0.36584
G1 X135.347 Y87.797 E0.01690
G1 X143.553 Y96.003 E0.36584
G1 X143.553 Y96.540 E0.01690
G1 X135.347 Y88.333 E0.36584
G1 X135.347 Y88.870 E0.01690
G1 X143.553 Y97.076 E0.36584
G1 X143.553 Y97.612 E0.01690
G1 X135.347 Y89.406 E0.36584
G1 X135.347 Y89.942 E0.01690
G1 X143.553 Y98.148 E0.36584
G1 X143.553 Y98.684 E0.01690
G1 X135.347 Y90.478 E0.36584
G1 X135.347 Y91.014 E0.01690
G1 X143.553 Y99.220 E0.36584
G1 X143.553 Y99.757 E0.01690
G1 X135.347 Y91.550 E0.36584
G1 X135.347 Y92.087 E0.01690
G1 X143.553 Y100.293 E0.36584
G1 X143.553 Y100.829 E0.01690
G1 X135.347 Y92.623 E0.36584
G1 X135.347 Y93.159 E0.01690
G1 X143.553 Y101.365 E0.36584
G1 X143.553 Y101.901 E0.01690
G1 X135.347 Y93.695 E0.36584
G1 X135.347 Y94.231 E0.01690
G1 X143.553 Y102.437 E0.36584
G1 X143.553 Y102.753 E0.00995
G1 X143.333 Y102.753 E0.00695
G1 X135.347 Y94.767 E0.35601
G1 X135.347 Y95.304 E0.01690
G1 X142.796 Y102.753 E0.33211
G1 X142.260 Y102.753 E0.01690
G1 X135.347 Y95.840 E0.30821
G1 X134.818 Y95.847 E0.01667
G1 X141.724 Y102.753 E0.30788
G1 X141.188 Y102.753 E0.01690
G1 X134.282 Y95.847 E0.30788
G1 X133.746 Y95.847 E0.01690
G1 X140.652 Y102.753 E0.30788
G1 X140.116 Y102.753 E0.01690
G1 X133.210 Y95.847 E0.30788
G1 X132.673 Y95.847 E0.01690
G1 X139.580 Y102.753 E0.30788
G1 X139.043 Y102.753 E0.01690
G1 X132.137 Y95.847 E0.30788
G1 X131.601 Y95.847 E0.01690
G1 X138.507 Y102.753 E0.30788
G1 X137.971 Y102.753 E0.01690
G1 X131.065 Y95.847 E0.30788
G1 X130.529 Y95.847 E0.01690
G1 X137.435 Y102.753 E0.30788
G1 X136.899 Y102.753 E0.01690
G1 X129.993 Y95.847 E0.30788
G1 X129.457 Y95.847 E0.01690
G1 X136.363 Y102.753 E0.30788
G1 X135.826 Y102.753 E0.01690
G1 X128.920 Y95.847 E0.30788
G1 X128.384 Y95.847 E0.01690
G1 X135.290 Y102.753 E0.30788
G1 X134.754 Y102.753 E0.01690
G1 X127.848 Y95.847 E0.30788
G1 X127.312 Y95.847 E0.01690
G1 X134.218 Y102.753 E0.30788
G1 X133.682 Y102.753 E0.01690
G1 X126.776 Y95.847 E0.30788
G1 X126.240 Y95.847 E0.01690
G1 X133.146 Y102.753 E0.30788
G1 X132.610 Y102.753 E0.01690
G1 X125.703 Y95.847 E0.30788
G1 X125.167 Y95.847 E0.01690
G1 X132.073 Y102.753 E0.30788
G1 X131.537 Y102.753 E0.01690
G1 X124.631 Y95.847 E0.30788
G1 X124.095 Y95.847 E0.01690
G1 X131.001 Y102.753 E0.30788
G1 X130.465 Y102.753 E0.01690
G1 X123.559 Y95.847 E0.30788
G1 X123.023 Y95.847 E0.01690
G1 X129.929 Y102.753 E0.30788
G1 X129.393 Y102.753 E0.01690
G1 X122.486 Y95.847 E0.30788
G1 X121.950 Y95.847 E0.01690
G1 X128.856 Y102.753 E0.30788
G1 X128.320 Y102.753 E0.01690
G1 X121.414 Y95.847 E0.30788
G1 X120.878 Y95.847 E0.01690
G1 X127.784 Y102.753 E0.30788
G1 X127.248 Y102.753 E0.01690
G1 X120.342 Y95.847 E0.30788
G1 X119.806 Y95.847 E0.01690
G1 X126.712 Y102.753 E0.30788
G1 X126.176 Y102.753 E0.01690
G1 X119.270 Y95.847 E0.30788
G1 X118.733 Y95.847 E0.01690
G1 X125.640 Y102.753 E0.30788
G1 X125.103 Y102.753 E0.01690
G1 X118.197 Y95.847 E0.30788
G1 X117.661 Y95.847 E0.01690
G1 X124.567 Y102.753 E0.30788
G1 X124.031 Y102.753 E0.01690
G1 X117.125 Y95.847 E0.30788
G1 X116.589 Y95.847 E0.01690
G1 X123.495 Y102.753 E0.30788
G1 X122.959 Y102.753 E0.01690
G1 X116.053 Y95.847 E0.30788
G1 X115.516 Y95.847 E0.01690
G1 X122.423 Y102.753 E0.30788
G1 X121.886 Y102.753 E0.01690
G1 X114.980 Y95.847 E0.30788
G1 X114.444 Y95.847 E0.01690
G1 X121.350 Y102.753 E0.30788
G1 X120.814 Y102.753 E0.01690
G1 X113.908 Y95.847 E0.30788
G1 X113.372 Y95.847 E0.01690
G1 X120.278 Y102.753 E0.30788
G1 X119.742 Y102.753 E0.01690
G1 X112.836 Y95.847 E0.30788
G1 X112.300 Y95.847 E0.01690
G1 X119.206 Y102.753 E0.30788
G1 X118.670 Y102.753 E0.01690
G1 X111.763 Y95.847 E0.30788
G1 X111.227 Y95.847 E0.01690
G1 X118.133 Y102.753 E0.30788
G1 X117.597 Y102.753 E0.01690
