; generated by Slic3r 1.31.6-prusa3d on 2017-02-28 at 15:26:41

; external perimeters extrusion width = 0.45mm
; perimeters extrusion width = 0.45mm
; infill extrusion width = 0.45mm
; solid infill extrusion width = 0.45mm
; top infill extrusion width = 0.45mm
; support material extrusion width = 0.35mm

M107
M115 U3.0.9 ; tell printer latest fw version
M83  ; extruder relative mode
M104 S215 ; set extruder temp
M140 S55 ; set bed temp
M190 S55 ; wait for bed temp
M109 S215 ; wait for extruder temp
G28 W ; home all without mesh bed level
G80 ; mesh bed leveling
G1 Y-3.0 F1000.0 ; go outside pritn area
G1 X60.0 E9.0  F1000.0 ; intro line
G1 X100.0 E12.5  F1000.0 ; intro line
G21 ; set units to millimeters
G90 ; use absolute coordinates
M83 ; use relative distances for extrusion
G1 E-0.80000 F2100.00000
G1 Z0.200 F7200.000
G1 X110.439 Y92.783 F7200.000
G1 E0.80000 F2100.00000
M204 S1000
G1 F2100
G1 X111.505 Y91.769 E0.04612
G1 X112.639 Y91.451 E0.03696
G1 X128.771 Y90.513 E0.50666
G1 X134.676 Y90.513 E0.18515
G1 X135.631 Y90.684 E0.03041
G1 X138.155 Y91.617 E0.08436
G1 X139.348 Y92.476 E0.04612
G1 X139.954 Y94.200 E0.05729
G1 X139.954 Y112.800 E0.58319
G1 X139.561 Y114.217 E0.04612
G1 X138.543 Y115.205 E0.04447
G1 X130.815 Y119.520 E0.27752
G1 X129.403 Y119.869 E0.04562
G1 X124.405 Y119.742 E0.15676
G1 X123.417 Y119.658 E0.03108
G1 X122.693 Y119.491 E0.02331
G1 X111.825 Y115.376 E0.36436
G1 X110.638 Y114.506 E0.04612
G1 X110.046 Y112.800 E0.05664
G1 X110.046 Y94.200 E0.58319
G1 X110.423 Y92.840 E0.04424
G1 X110.815 Y92.893 F7200.000
G1 F2100
G1 X111.860 Y92.017 E0.04278
G1 X112.661 Y91.827 E0.02581
G1 X128.633 Y90.894 E0.50162
G1 X134.676 Y90.890 E0.18949
G1 X135.500 Y91.038 E0.02624
G1 X138.024 Y91.970 E0.08436
G1 X139.114 Y92.791 E0.04278
G1 X139.577 Y94.200 E0.04651
G1 X139.577 Y112.800 E0.58319
G1 X139.185 Y114.107 E0.04278
G1 X138.359 Y114.875 E0.03538
G1 X130.631 Y119.191 E0.27752
G1 X129.412 Y119.492 E0.03937
G1 X124.414 Y119.365 E0.15676
G1 X123.451 Y119.282 E0.03030
G1 X122.826 Y119.138 E0.02012
G1 X111.958 Y115.023 E0.36436
G1 X110.875 Y114.194 E0.04278
G1 X110.423 Y112.800 E0.04594
G1 X110.423 Y94.200 E0.58319
G1 X110.797 Y92.950 E0.04090
G1 F5760
G1 X111.860 Y92.017 E-0.49007
G1 F5760
G1 X112.619 Y91.837 E-0.26993
G1 E-0.04000 F2100.00000
G1 X135.964 Y111.564 F7200.000
G1 E0.80000 F2100.00000
G1 F1680
G1 X135.964 Y106.636 E0.15452
G1 X134.464 Y106.636 E0.04703
G1 X134.464 Y106.564 E0.00225
G1 X135.964 Y106.564 E0.04703
G1 X135.964 Y100.436 E0.19215
G1 X134.464 Y100.436 E0.04703
G1 X134.464 Y100.364 E0.00225
G1 X135.964 Y100.364 E0.04703
G1 X135.964 Y95.164 E0.16304
G1 X136.236 Y95.164 E0.00852
G1 X136.236 Y111.836 E0.52273
G1 X130.364 Y111.836 E0.18410
G1 X130.364 Y111.564 E0.00852
G1 X135.904 Y111.564 E0.17370
G1 X135.587 Y111.187 F7200.000
G1 F1680
G1 X135.587 Y107.013 E0.13088
G1 X134.087 Y107.013 E0.04703
G1 X134.087 Y106.187 E0.02589
G1 X135.587 Y106.187 E0.04703
G1 X135.587 Y100.813 E0.16850
G1 X134.087 Y100.813 E0.04703
G1 X134.087 Y99.987 E0.02589
G1 X135.587 Y99.987 E0.04703
G1 X135.587 Y94.787 E0.16304
G1 X136.613 Y94.787 E0.03216
G1 X136.613 Y112.213 E0.54638
G1 X129.987 Y112.213 E0.20775
G1 X129.987 Y111.187 E0.03216
G1 X135.527 Y111.187 E0.17370
G1 X135.210 Y110.810 F7200.000
G1 F1050
G1 X135.210 Y107.390 E0.10723
G1 X133.710 Y107.390 E0.04703
G1 X133.710 Y105.810 E0.04954
G1 X135.210 Y105.810 E0.04703
G1 X135.210 Y101.190 E0.14486
G1 X133.710 Y101.190 E0.04703
G1 X133.710 Y99.610 E0.04954
G1 X135.210 Y99.610 E0.04703
G1 X135.210 Y94.410 E0.16304
G1 X136.990 Y94.410 E0.05581
G1 X136.990 Y112.590 E0.57002
G1 X129.610 Y112.590 E0.23139
G1 X129.610 Y110.810 E0.05581
G1 X135.150 Y110.810 E0.17370
G1 X135.608 Y110.769 F7200.000
G1 F5760
G1 X135.188 Y108.616 E-0.76000
G1 E-0.04000 F2100.00000
G1 X122.836 Y111.564 F7200.000
G1 E0.80000 F2100.00000
G1 F840
G1 X122.836 Y111.836 E0.00852
G1 X120.164 Y111.836 E0.08377
G1 X120.164 Y111.564 E0.00852
G1 X122.776 Y111.564 E0.08189
G1 X123.213 Y111.187 F7200.000
G1 F840
G1 X123.213 Y112.213 E0.03216
G1 X119.787 Y112.213 E0.10741
G1 X119.787 Y111.187 E0.03216
G1 X123.153 Y111.187 E0.10553
G1 X123.590 Y110.810 F7200.000
G1 F840
G1 X123.590 Y112.590 E0.05581
G1 X119.410 Y112.590 E0.13106
G1 X119.410 Y110.810 E0.05581
G1 X123.530 Y110.810 E0.12918
G1 X123.438 Y111.180 F7200.000
G1 F5760
G1 X123.590 Y112.590 E-0.61686
G1 F5760
G1 X123.177 Y112.590 E-0.14314
G1 E-0.04000 F2100.00000
G1 X114.036 Y95.436 F7200.000
G1 E0.80000 F2100.00000
G1 F1680
G1 X114.036 Y100.364 E0.15452
G1 X115.536 Y100.364 E0.04703
G1 X115.536 Y100.436 E0.00225
G1 X114.036 Y100.436 E0.04703
G1 X114.036 Y106.564 E0.19215
G1 X115.536 Y106.564 E0.04703
G1 X115.536 Y106.636 E0.00225
G1 X114.036 Y106.636 E0.04703
G1 X114.036 Y111.564 E0.15452
G1 X115.236 Y111.564 E0.03763
G1 X115.236 Y111.836 E0.00852
G1 X113.764 Y111.836 E0.04614
G1 X113.764 Y95.164 E0.52273
G1 X127.336 Y95.164 E0.42553
G1 X127.336 Y95.436 E0.00852
G1 X114.096 Y95.436 E0.41513
G1 X114.413 Y95.813 F7200.000
G1 F1680
G1 X114.413 Y99.987 E0.13088
G1 X115.913 Y99.987 E0.04703
G1 X115.913 Y100.813 E0.02589
G1 X114.413 Y100.813 E0.04703
G1 X114.413 Y106.187 E0.16850
G1 X115.913 Y106.187 E0.04703
G1 X115.913 Y107.013 E0.02589
G1 X114.413 Y107.013 E0.04703
G1 X114.413 Y111.187 E0.13088
G1 X115.613 Y111.187 E0.03763
G1 X115.613 Y112.213 E0.03216
G1 X113.387 Y112.213 E0.06979
G1 X113.387 Y94.787 E0.54638
G1 X127.713 Y94.787 E0.44918
G1 X127.713 Y95.813 E0.03216
G1 X114.473 Y95.813 E0.41513
G1 X114.790 Y96.190 F7200.000
G1 F1050
G1 X114.790 Y99.610 E0.10723
G1 X116.290 Y99.610 E0.04703
G1 X116.290 Y101.190 E0.04954
G1 X114.790 Y101.190 E0.04703
G1 X114.790 Y105.810 E0.14486
G1 X116.290 Y105.810 E0.04703
G1 X116.290 Y107.390 E0.04954
G1 X114.790 Y107.390 E0.04703
G1 X114.790 Y110.810 E0.10723
G1 X115.990 Y110.810 E0.03763
G1 X115.990 Y112.590 E0.05581
G1 X113.010 Y112.590 E0.09344
G1 X113.010 Y94.410 E0.57002
G1 X128.090 Y94.410 E0.47282
G1 X128.090 Y96.190 E0.05581
G1 X114.850 Y96.190 E0.41513
G1 X114.390 Y96.208 F7200.000
G1 F5760
G1 X114.812 Y98.384 E-0.76000
G1 E-0.04000 F2100.00000
G1 Z0.200 F7200.000
G1 X115.847 Y98.856 F7200.000
G1 E0.80000 F2100.00000
G1 F2100
G1 X116.039 Y98.473 E0.01342
G1 X116.883 Y98.473 E0.02645
G1 X116.776 Y98.686 E0.00747
G1 X117.214 Y98.686 E0.01372
G1 X117.214 Y99.496 E0.02540
G1 X117.726 Y98.473 E0.03588
G1 X118.570 Y98.473 E0.02645
G1 X117.044 Y101.518 E0.10678
G1 F5760
G1 X118.027 Y99.556 E-0.76000
G1 E-0.04000 F2100.00000
G1 X115.779 Y102.359 F7200.000
G1 E0.80000 F2100.00000
G1 F2100
G1 X115.902 Y102.114 E0.00859
G1 X116.745 Y102.114 E0.02645
G1 X116.708 Y102.189 E0.00264
G1 X117.551 Y102.189 E0.02645
G1 X119.413 Y98.473 E0.13031
G1 X120.257 Y98.473 E0.02645
G1 X118.395 Y102.189 E0.13031
G1 X119.238 Y102.189 E0.02645
G1 X121.101 Y98.473 E0.13031
G1 X121.944 Y98.473 E0.02645
G1 X120.082 Y102.189 E0.13031
G1 X120.926 Y102.189 E0.02645
G1 X122.788 Y98.473 E0.13031
G1 X123.627 Y98.483 E0.02630
G1 X121.211 Y103.302 E0.16902
G1 X121.211 Y104.986 E0.05277
G1 X124.324 Y98.774 E0.21786
G1 X124.381 Y98.819 E0.00228
G1 X124.621 Y99.067 E0.01080
G1 X124.738 Y99.254 E0.00694
G1 X124.824 Y99.460 E0.00700
G1 X121.041 Y107.007 E0.26468
G1 F5760
G1 X122.025 Y105.046 E-0.76000
G1 E-0.04000 F2100.00000
G1 X118.656 Y111.766 F7200.000
G1 E0.80000 F2100.00000
G1 F2100
G1 X117.671 Y113.733 E0.06896
G1 X118.514 Y113.733 E0.02645
G1 X118.624 Y113.514 E0.00768
G1 X119.468 Y113.514 E0.02645
G1 X119.307 Y113.834 E0.01125
G1 F5760
G1 X119.468 Y113.514 E-0.12423
G1 F5760
G1 X118.624 Y113.514 E-0.29218
G1 F5760
G1 X118.514 Y113.733 E-0.08485
G1 F5760
G1 X117.767 Y113.733 E-0.25874
G1 E-0.04000 F2100.00000
G1 X122.441 Y114.313 F7200.000
G1 E0.80000 F2100.00000
G1 F2100
G1 X122.842 Y113.514 E0.02803
G1 X123.686 Y113.514 E0.02645
G1 X122.492 Y115.896 E0.08355
G1 X129.472 Y117.116 F7200.000
G1 F2100
G1 X130.589 Y114.888 E0.07813
G1 X130.589 Y113.514 E0.04309
G1 X130.434 Y113.514 E0.00485
G1 X128.692 Y116.989 E0.12189
G1 X127.849 Y116.989 E0.02645
G1 X129.591 Y113.514 E0.12189
G1 X128.747 Y113.514 E0.02645
G1 X127.005 Y116.989 E0.12189
G1 X126.162 Y116.989 E0.02645
G1 X128.856 Y111.613 E0.18856
G1 F5760
G1 X127.873 Y113.574 E-0.76000
G1 E-0.04000 F2100.00000
G1 X131.323 Y110.056 F7200.000
G1 E0.80000 F2100.00000
G1 F2100
G1 X131.818 Y109.070 E0.03458
G1 X131.738 Y108.879 E0.00648
G1 X131.621 Y108.692 E0.00694
G1 X131.314 Y108.392 E0.01345
G1 X130.565 Y109.886 E0.05242
G1 X129.721 Y109.886 E0.02645
G1 X130.614 Y108.106 E0.06246
G1 X129.774 Y108.098 E0.02634
G1 X125.318 Y116.989 E0.31180
G1 X124.474 Y116.989 E0.02645
G1 X128.930 Y108.098 E0.31180
G1 X128.087 Y108.098 E0.02645
G1 X123.668 Y116.915 E0.30922
G1 X123.337 Y116.771 E0.01131
G1 X123.156 Y116.643 E0.00694
G1 X123.026 Y116.513 E0.00579
G1 X127.243 Y108.098 E0.29511
G1 X126.400 Y108.098 E0.02645
G1 X124.514 Y111.861 E0.13197
G1 X124.514 Y110.178 E0.05277
G1 X125.556 Y108.098 E0.07294
G1 X124.927 Y108.098 E0.01974
G1 X124.927 Y107.671 E0.01340
G1 X123.816 Y109.886 E0.07769
G1 X122.973 Y109.886 E0.02645
G1 X124.927 Y105.988 E0.13672
G1 X124.927 Y104.305 E0.05277
G1 X122.129 Y109.886 E0.19575
G1 X121.285 Y109.886 E0.02645
G1 X124.927 Y102.622 E0.25479
G1 X124.927 Y100.939 E0.05277
G1 X120.442 Y109.886 E0.31382
G1 X119.598 Y109.886 E0.02645
G1 X120.538 Y108.011 E0.06577
G1 X119.695 Y108.011 E0.02645
G1 X118.755 Y109.886 E0.06577
G1 X118.486 Y109.886 E0.00841
G1 X118.486 Y110.422 E0.01678
G1 X116.827 Y113.733 E0.11612
G1 X116.374 Y113.725 E0.01419
G1 X116.197 Y113.684 E0.00572
G1 X116.041 Y113.617 E0.00529
G1 X116.093 Y113.514 E0.00364
G1 X116.914 Y113.514 E0.02572
G1 X116.914 Y111.877 E0.05131
G1 X118.851 Y108.011 E0.13558
G1 X118.008 Y108.011 E0.02645
G1 X116.914 Y110.194 E0.07655
G1 X116.914 Y109.886 E0.00964
G1 X116.224 Y109.886 E0.02162
G1 X117.012 Y108.314 E0.05517
G1 X116.169 Y108.314 E0.02645
G1 X115.544 Y109.560 E0.04373
G1 F5760
G1 X116.169 Y108.314 E-0.48306
G1 F5760
G1 X116.968 Y108.314 E-0.27694
G1 E-0.04000 F2100.00000
G1 X131.325 Y96.588 F7200.000
G1 E0.80000 F2100.00000
G1 F2100
G1 X132.989 Y93.267 E0.11645
G1 X132.146 Y93.267 E0.02645
G1 X130.567 Y96.418 E0.11050
G1 X129.723 Y96.418 E0.02645
G1 X131.302 Y93.267 E0.11050
G1 X130.458 Y93.267 E0.02645
G1 X129.014 Y96.150 E0.10111
G1 X129.014 Y94.467 E0.05277
G1 X129.615 Y93.267 E0.04208
G1 X128.771 Y93.267 E0.02645
G1 X128.577 Y93.656 E0.01363
G1 X134.482 Y93.656 F7200.000
G1 F2100
G1 X134.676 Y93.267 E0.01363
G1 X133.833 Y93.267 E0.02645
G1 X132.254 Y96.418 E0.11050
G1 X133.097 Y96.418 E0.02645
G1 X134.286 Y94.045 E0.08322
G1 X134.286 Y95.729 E0.05277
G1 X133.856 Y96.588 E0.03014
M106 S255
M104 S205 ; set temperature
G1 F5760
G1 X134.286 Y95.729 E-0.33290
G1 F5760
G1 X134.286 Y94.495 E-0.42710
G1 E-0.04000 F2100.00000
G1 Z0.350 F7200.000
G1 X136.061 Y111.661 F7200.000
G1 E0.80000 F2100.00000
M204 S800
G1 F1498.895
G1 X136.061 Y95.261 E0.42731
G1 X136.139 Y95.261 E0.00205
G1 X136.139 Y111.739 E0.42937
G1 X130.461 Y111.739 E0.14796
G1 X130.461 Y111.661 E0.00205
G1 X136.001 Y111.661 E0.14435
M204 S1000
G1 X135.643 Y111.243 F7200.000
M204 S800
G1 F1498.895
G1 X135.643 Y106.957 E0.11167
G1 X134.143 Y106.957 E0.03908
G1 X134.143 Y106.243 E0.01861
G1 X135.643 Y106.243 E0.03908
G1 X135.643 Y100.757 E0.14293
G1 X134.143 Y100.757 E0.03908
G1 X134.143 Y100.043 E0.01861
G1 X135.643 Y100.043 E0.03908
G1 X135.643 Y94.843 E0.13549
G1 X136.557 Y94.843 E0.02383
G1 X136.557 Y112.157 E0.45114
G1 X130.043 Y112.157 E0.16974
G1 X130.043 Y111.243 E0.02382
G1 X135.583 Y111.243 E0.14435
M204 S1000
G1 X135.225 Y110.825 F7200.000
M204 S800
G1 F936.809
G1 X135.225 Y107.375 E0.08989
G1 X133.725 Y107.375 E0.03908
G1 X133.725 Y105.825 E0.04039
G1 X135.225 Y105.825 E0.03908
G1 X135.225 Y101.175 E0.12116
G1 X133.725 Y101.175 E0.03908
G1 X133.725 Y99.625 E0.04039
G1 X135.225 Y99.625 E0.03908
G1 X135.225 Y94.425 E0.13549
G1 X136.975 Y94.425 E0.04560
G1 X136.975 Y112.575 E0.47291
G1 X129.625 Y112.575 E0.19151
G1 X129.625 Y110.825 E0.04560
G1 X135.165 Y110.825 E0.14435
M204 S1000
G1 X135.623 Y110.785 F7200.000
G1 F5760
G1 X135.203 Y108.631 E-0.76000
G1 E-0.04000 F2100.00000
G1 X135.852 Y106.600 F7200.000
G1 E0.80000 F2100.00000
G1 F1498.895
G1 X134.352 Y106.600 E0.02473
G1 F5760
G1 X135.852 Y106.600 E-0.51953
G1 E-0.28047 F2100.00000
G1 X134.352 Y100.400 F7200.000
G1 E0.80000 F2100.00000
G1 F1498.895
G1 X135.852 Y100.400 E0.02473
G1 F5760
G1 X134.352 Y100.400 E-0.51953
G1 E-0.28047 F2100.00000
G1 X122.739 Y111.661 F7200.000
G1 E0.80000 F2100.00000
M204 S800
G1 F900.000
G1 X122.739 Y111.739 E0.00205
G1 X120.261 Y111.739 E0.06459
G1 X120.261 Y111.661 E0.00205
G1 X122.679 Y111.661 E0.06302
M204 S1000
G1 X123.157 Y111.243 F7200.000
M204 S800
G1 F900.000
G1 X123.157 Y112.157 E0.02382
G1 X119.843 Y112.157 E0.08636
G1 X119.843 Y111.243 E0.02382
G1 X123.097 Y111.243 E0.08480
M204 S1000
G1 X123.575 Y110.825 F7200.000
M204 S800
G1 F900.000
G1 X123.575 Y112.575 E0.04560
G1 X119.425 Y112.575 E0.10813
G1 X119.425 Y110.825 E0.04560
G1 X123.515 Y110.825 E0.10657
M204 S1000
G1 X123.423 Y111.195 F7200.000
G1 F5760
G1 X123.575 Y112.575 E-0.60648
G1 F5760
G1 X123.132 Y112.575 E-0.15352
G1 E-0.04000 F2100.00000
G1 X115.139 Y111.661 F7200.000
G1 E0.80000 F2100.00000
M204 S800
G1 F1498.895
G1 X115.139 Y111.739 E0.00205
G1 X113.861 Y111.739 E0.03332
G1 X113.861 Y95.261 E0.42937
G1 X127.239 Y95.261 E0.34859
G1 X127.239 Y95.339 E0.00205
G1 X113.939 Y95.339 E0.34654
G1 X113.939 Y111.661 E0.42526
G1 X115.079 Y111.661 E0.02970
M204 S1000
G1 F5760
G1 X115.139 Y111.739 E-0.03429
G1 F5760
G1 X113.861 Y111.739 E-0.44291
G1 F5760
G1 X113.861 Y110.923 E-0.28280
G1 E-0.04000 F2100.00000
G1 X114.357 Y95.757 F7200.000
G1 E0.80000 F2100.00000
M204 S800
G1 F1498.895
G1 X114.357 Y100.043 E0.11167
G1 X115.857 Y100.043 E0.03908
G1 X115.857 Y100.757 E0.01861
G1 X114.357 Y100.757 E0.03908
G1 X114.357 Y106.243 E0.14293
G1 X115.857 Y106.243 E0.03908
G1 X115.857 Y106.957 E0.01861
G1 X114.357 Y106.957 E0.03908
G1 X114.357 Y111.243 E0.11167
G1 X115.557 Y111.243 E0.03127
G1 X115.557 Y112.157 E0.02382
G1 X113.443 Y112.157 E0.05509
G1 X113.443 Y94.843 E0.45114
G1 X127.657 Y94.843 E0.37037
G1 X127.657 Y95.757 E0.02382
G1 X114.417 Y95.757 E0.34498
M204 S1000
G1 X114.775 Y96.175 F7200.000
M204 S800
G1 F936.809
G1 X114.775 Y99.625 E0.08989
G1 X116.275 Y99.625 E0.03908
G1 X116.275 Y101.175 E0.04039
G1 X114.775 Y101.175 E0.03908
G1 X114.775 Y105.825 E0.12116
G1 X116.275 Y105.825 E0.03908
G1 X116.275 Y107.375 E0.04039
G1 X114.775 Y107.375 E0.03908
G1 X114.775 Y110.825 E0.08989
G1 X115.975 Y110.825 E0.03127
G1 X115.975 Y112.575 E0.04560
G1 X113.025 Y112.575 E0.07686
G1 X113.025 Y94.425 E0.47291
G1 X128.075 Y94.425 E0.39214
G1 X128.075 Y96.175 E0.04560
G1 X114.835 Y96.175 E0.34498
M204 S1000
G1 X114.375 Y96.192 F7200.000
G1 F5760
G1 X114.797 Y98.369 E-0.76000
G1 E-0.04000 F2100.00000
G1 X114.148 Y100.400 F7200.000
G1 E0.80000 F2100.00000
G1 F1498.895
G1 X115.648 Y100.400 E0.02473
G1 F5760
G1 X114.148 Y100.400 E-0.51953
G1 E-0.28047 F2100.00000
G1 X115.648 Y106.600 F7200.000
G1 E0.80000 F2100.00000
G1 F1498.895
G1 X114.148 Y106.600 E0.02473
G1 F5760
G1 X115.648 Y106.600 E-0.51953
G1 E-0.28047 F2100.00000
G1 Z0.350 F7200.000
G1 X116.741 Y113.180 F7200.000
G1 E0.80000 F2100.00000
G1 F1873.619
G1 X118.516 Y113.180 E0.03518
G1 X118.516 Y111.362 E0.03603
G1 X116.884 Y111.362 E0.03235
G1 X116.884 Y109.916 E0.02866
G1 X115.684 Y109.916 E0.02378
G1 X115.684 Y109.545 E0.00736
G1 X131.956 Y109.545 E0.32251
G1 X131.950 Y109.411 E0.00264
G1 X131.899 Y109.190 E0.00450
G1 X131.765 Y108.867 E0.00693
G1 X131.603 Y108.624 E0.00579
G1 X131.401 Y108.422 E0.00566
G1 X131.216 Y108.290 E0.00450
G1 X130.835 Y108.126 E0.00822
G1 X130.614 Y108.075 E0.00450
G1 X124.956 Y108.069 E0.11213
G1 X124.956 Y107.727 E0.00678
G1 X121.181 Y107.727 E0.07481
G1 X121.181 Y105.909 E0.03603
G1 X124.956 Y105.909 E0.07481
G1 X124.956 Y104.091 E0.03603
G1 X121.181 Y104.091 E0.07481
G1 X121.181 Y102.273 E0.03603
G1 X124.956 Y102.273 E0.07481
G1 X124.956 Y100.456 E0.03603
G1 X117.184 Y100.456 E0.15404
G1 X117.184 Y98.716 E0.03447
